X: 1
T: Ragundapolskan
O: Bengt Jonsson
N: Taught by Bengt Jonsson, Oct 1993
N: Good for Gammelv\"anster fr\aan Oviken
R: polska, masurka
Z: John Chambers <jc@trillian.mit.edu>
M: 3/4
L: 1/8
K: Gm
|: "Gm"d>g d2 "D7"c2 | "Gm"B>A G>A (3BA-G | "D7"A>G ^F>G (3AB-A |1,3 "Gm"G>(^F GA) Bc :|2,4 "Gm"G2 G4 :|
|: "Gm"[dD]>g (3ga-g (3ga-g | g>a (3ab-a "D7"^f>d | d>A (3Bd-B A>G |1,3 ^F>G (3AB-A F>D :|2,4 (3^F=EF "Gm"G4 :|
